X:172
T:Shpil zhe mir a lidele in yidish
O:klezmer
M:4/4
L:1/8
Q:1/4=
K:C
V:1
"E" E3/2 F/^GA "Dm" ^G3/2 F/EF |"E" ^G(E E2) z2 zA |^GA Bc "Dm" BA ^G3/2 A/|"E" B(^G ^G2) z2 zB |
"Dm" Bc de d2 zc |d3/2 c/BA "E" e2 zA |^GA BA "Dm" ^GD EF |"E" E6 z2 ||
"C" e4 e4 |e2 d/c3/2 "G" d3 z|"Am" e3/2 d/cB cd ec |"E" B6 z2 |
"Dm" d4 d2 de |fe dc Bz Bc |"B" dc BA ^G3/2 A/^G3/2 F/|"E" E6 z2 |]





